X:878
T:The Night We Had the Goats
T:An oidhche bha na gabhair againn
R:Reel
B:The Athole Collection
M:C|
L:1/8
K:G
e|d>G G/G/G dBBd|e/e/e g2 dBBe|dG G/G/G dBBd|egdB A2A:|
|:g|e/e/e g2 dBBd|e/e/e g2 dB g2|b/a/g/f/ g2 dBBd|egdB A2A:|

